assets/img/icons/duotone-icons/Media/Media-library#3.svg

<?xml version="1.0" encoding="UTF-8"?>
<svg width="24px" height="24px" viewBox="0 0 24 24" version="1.1" xmlns="http://www.w3.org/2000/svg" xmlns:xlink="http://www.w3.org/1999/xlink">
    <!-- Generator: Sketch 52.2 (67145) - http://www.bohemiancoding.com/sketch -->
    <title>Stockholm-icons / Media / Media-library#3</title>
    <desc>Created with Sketch.</desc>
    <defs>
        <path d="M19,5 L9,5 C8.44771525,5 8,5.44771525 8,6 C8,6.55228475 8.44771525,7 9,7 L19,7 L19,20.25 C19,20.6642136 18.6865993,21 18.3,21 L7.45,21 C6.09690236,21 5,19.8247475 5,18.375 L5,5.625 C5,4.17525253 6.09690236,3 7.45,3 L18.3,3 C18.6865993,3 19,3.33578644 19,3.75 L19,5 Z" id="path-1"></path>
    </defs>
    <g id="Stockholm-icons-/-Media-/-Media-library#3" stroke="none" stroke-width="1" fill="none" fill-rule="evenodd">
        <rect id="bound" x="0" y="0" width="24" height="24"></rect>
        <mask id="mask-2" fill="white">
            <use xlink:href="#path-1"></use>
        </mask>
        <use id="Combined-Shape" fill="#335EEA" opacity="0.3" xlink:href="#path-1"></use>
        <path d="M10.8333333,19 C9.82081129,19 9,18.3159906 9,17.4722222 C9,16.6284539 9.82081129,15.9444444 10.8333333,15.9444444 C11.0476105,15.9444444 11.2533018,15.9750785 11.4444444,16.0313779 L11.4444444,11.7916011 C11.4444444,11.4782408 11.6398662,11.2012404 11.9268804,11.1077729 L15.4407693,10.0331119 C15.8834716,9.88894376 16.3333333,10.2336005 16.3333333,10.7169402 L16.3333333,11.7916011 C16.3333333,12.1498215 15.9979332,12.3786009 15.7222222,12.4444444 C15.3255297,12.53918 14.3070112,12.7428837 12.6666667,13.0555556 L12.6666667,17.5035214 C12.6666667,17.5583862 12.6622174,17.6091837 12.6535404,17.6559869 C12.5446237,18.4131089 11.771224,19 10.8333333,19 Z" id="Combined-Shape" fill="#335EEA" mask="url(#mask-2)"></path>
    </g>
</svg>

<svg width="24" height="24" viewBox="0 0 24 24" xmlns="http://www.w3.org/2000/svg" xmlns:xlink="http://www.w3.org/1999/xlink"><defs><path d="M19 5H9a1 1 0 100 2h10v13.25c0 .414-.313.75-.7.75H7.45C6.097 21 5 19.825 5 18.375V5.625C5 4.175 6.097 3 7.45 3H18.3c.387 0 .7.336.7.75V5z" id="a"/></defs><g fill="none" fill-rule="evenodd"><path d="M0 0h24v24H0z"/><mask id="b" fill="#fff"><use xlink:href="#a"/></mask><use fill="#335EEA" opacity=".3" xlink:href="#a"/><path d="M10.833 19C9.821 19 9 18.316 9 17.472s.82-1.528 1.833-1.528c.215 0 .42.031.611.087v-4.24c0-.313.196-.59.483-.683l3.514-1.075c.442-.144.892.2.892.684v1.075c0 .358-.335.587-.61.652-.397.095-1.416.299-3.056.612v4.448a.837.837 0 01-.013.152c-.11.757-.883 1.344-1.82 1.344z" fill="#335EEA" mask="url(#b)"/></g></svg>
